svg/white/btcz.svg

<svg xmlns="http://www.w3.org/2000/svg" width="32" height="32" viewBox="0 0 32 32">
  <path fill="#FFF" d="M16,32 C7.163444,32 0,24.836556 0,16 C0,7.163444 7.163444,0 16,0 C24.836556,0 32,7.163444 32,16 C32,24.836556 24.836556,32 16,32 Z M15.9999993,26.9999975 C17.1348651,27.00076 18.2630081,26.8258206 19.3443461,26.4813947 C19.6465973,26.3852636 19.8746037,26.1351856 19.9424773,25.8253627 C20.0103508,25.5155398 19.9077801,25.1930416 19.6734024,24.9793499 C19.4390247,24.7656582 19.1084477,24.693238 18.8061964,24.7893692 C17.8988229,25.0781197 16.9522087,25.2246244 15.9999993,25.2236761 C10.9141489,25.2236761 6.77632153,21.0858489 6.77632153,15.9999988 C6.77632153,10.9141486 10.9141489,6.77632143 15.9999993,6.77632143 C21.0858497,6.77632143 25.2236771,10.9135378 25.2236771,15.9999988 C25.2243269,16.8408726 25.1102702,17.6779052 24.8846611,18.4879483 C24.7527544,18.9602486 25.0286979,19.4500552 25.5009983,19.5819619 C25.9732986,19.7138687 26.4631053,19.4379251 26.595012,18.9656248 C26.864244,18.0000998 27.0004959,17.0023581 26.9999986,15.9999988 C26.9999986,9.93741615 22.0625822,5 15.9999993,5 C9.9374164,5 5,9.93436195 5,15.9999988 C5,22.0656356 9.9343622,26.9999975 15.9999993,26.9999975 Z M19.3748881,15.9743435 C18.9835248,15.6525133 18.4986845,15.4656902 17.9925581,15.4416914 C18.3570466,15.1811629 18.6266194,14.8088651 18.7603834,14.3812739 C18.8893374,13.970188 18.9076674,13.5323757 18.8135265,13.1119493 C18.7508381,12.8288738 18.6400984,12.5586359 18.4861164,12.3129712 C18.336056,12.0698401 18.1443841,11.8550105 17.9198682,11.6783089 C17.6966998,11.5039102 17.4411032,11.3755928 17.1679246,11.30081 C16.8800926,11.2228166 16.577362,11.217778 16.2870939,11.2861499 L15.726954,11.4083178 C15.6503189,11.4254153 15.5700302,11.4113253 15.5037961,11.3691555 C15.4375619,11.3269856 15.3908233,11.2602001 15.3738887,11.1835288 L15.2260656,10.516492 C15.209131,10.4398208 15.1623924,10.3730353 15.0961582,10.3308654 C15.0299241,10.2886956 14.9496354,10.2746056 14.8730003,10.2917031 L14.1955792,10.4413588 C14.0360355,10.4758074 13.9345929,10.6330298 13.9689577,10.7925915 L14.1186134,11.464515 C14.1357109,11.5411501 14.1216209,11.6214388 14.0794511,11.687673 C14.0372812,11.7539072 13.9704957,11.8006457 13.8938244,11.8175803 L12.0613057,12.2237886 C11.874253,12.2649866 11.711235,12.3788206 11.60813,12.5402372 C11.505025,12.7016538 11.4702829,12.8974241 11.51155,13.0844615 L13.1608169,20.5434234 C13.2020149,20.7304761 13.3158489,20.893494 13.4772655,20.996599 C13.6386822,21.099704 13.8344525,21.1344461 14.0214899,21.093179 L15.8540087,20.6869707 C15.9306438,20.6698732 16.0109324,20.6839632 16.0771666,20.726133 C16.1434008,20.7683029 16.1901394,20.8350884 16.2070739,20.9117596 L16.3548971,21.5787964 C16.3718317,21.6554677 16.4185703,21.7222532 16.4848044,21.7644231 C16.5510386,21.8065929 16.6313273,21.8206829 16.7079624,21.8035854 L17.3853835,21.6539297 C17.4620548,21.6369952 17.5288403,21.5902566 17.5710102,21.5240224 C17.61318,21.4577882 17.62727,21.3774995 17.6101725,21.3008644 L17.4611276,20.6289409 C17.4259694,20.4714696 17.5235593,20.3148908 17.680419,20.2770973 L17.9339175,20.2160134 C18.3419583,20.1256091 18.4225891,20.0688011 18.7652701,19.8922684 C19.0891655,19.731261 19.3828165,19.5155175 19.6332732,19.2545519 C19.8622434,19.0140214 20.0313298,18.7229334 20.1268316,18.4048741 C20.2230339,18.061554 20.2287158,17.6991757 20.1433243,17.3530084 C20.0109757,16.751535 19.7548303,16.2919801 19.3748881,15.9743435 Z M13.9445241,14.3769981 C13.903257,14.1899606 13.9379991,13.9941903 14.0411041,13.8327737 C14.1442091,13.6713571 14.3072271,13.5575231 14.4942797,13.5163251 L15.875388,13.2109053 C16.0859967,13.1610468 16.3078679,13.2025367 16.4862276,13.3251323 C16.6751807,13.4493364 16.8020317,13.6572254 16.8667807,13.9487995 C16.9368236,14.2652144 16.9009877,14.5176948 16.7592729,14.7062406 C16.6263734,14.8890897 16.4305742,15.0163592 16.2095173,15.0635817 L14.9035423,15.3525088 C14.7165048,15.3937759 14.5207345,15.3590338 14.3593179,15.2559288 C14.1979012,15.1528238 14.0840672,14.9898059 14.0428693,14.8027532 L13.9445241,14.3769981 Z M17.8538975,18.1440456 C17.7177523,18.3579948 17.4990251,18.5059508 17.2497771,18.5526973 L15.6811411,18.8996541 C15.4941036,18.9409213 15.2983333,18.9061792 15.1369167,18.8030741 C14.9755,18.6999691 14.861666,18.5369512 14.8204681,18.3498985 L14.7037977,17.8233548 C14.6625306,17.6363174 14.6972727,17.4405471 14.8003777,17.2791305 C14.9034827,17.1177139 15.0665007,17.0038799 15.2535533,16.9626819 L16.9095395,16.5961782 C17.1428548,16.5410806 17.3885014,16.5987601 17.5729113,16.7519423 C17.7767617,16.913752 17.9158886,17.1432464 17.9650703,17.3988213 C18.0329123,17.6516083 17.9935813,17.9211805 17.8563408,18.1440456 L17.8538975,18.1440456 Z M21.1518204,23.5273746 C21.1096642,23.5776877 21.0867209,23.6413228 21.0870714,23.7069615 L21.0870714,23.986726 C21.0870714,24.1398862 21.2112323,24.2640471 21.3643926,24.2640471 L23.8163027,24.2640471 C23.8898529,24.2640471 23.9603906,24.2348295 24.0123984,24.1828217 C24.0644062,24.1308138 24.0936239,24.0602761 24.0936239,23.986726 L24.0936239,23.7723213 C24.0936239,23.619161 23.969463,23.4950001 23.8163027,23.4950001 L22.7650478,23.4950001 C22.6587591,23.4948135 22.5619277,23.4338934 22.5157514,23.3381591 C22.4695752,23.2424247 22.4821788,23.1287201 22.5481997,23.0454222 L24.0142147,21.2031301 C24.0534554,21.154263 24.0749867,21.093545 24.0752987,21.0308734 L24.0752987,20.7474438 C24.0752987,20.6738937 24.046081,20.6033559 23.9940732,20.5513481 C23.9420654,20.4993403 23.8715277,20.4701226 23.7979775,20.4701226 L21.4395259,20.4701226 C21.2863656,20.4701226 21.1622047,20.5942836 21.1622047,20.7474438 L21.1622047,20.9630702 C21.1622047,21.1162304 21.2863656,21.2403913 21.4395259,21.2403913 L22.4724556,21.2403913 C22.5798243,21.2407003 22.6773671,21.3029585 22.7228578,21.4002145 C22.7683485,21.4974705 22.753612,21.6122465 22.6850278,21.694856 L21.1518204,23.5273746 Z"/>
</svg>

<svg xmlns="http://www.w3.org/2000/svg" width="32" height="32"><path fill="#FFF" d="M16 32C7.163 32 0 24.837 0 16S7.163 0 16 0s16 7.163 16 16-7.163 16-16 16zm0-5c1.135 0 2.263-.174 3.344-.519a.888.888 0 1 0-.538-1.692 9.224 9.224 0 0 1-2.806.435c-5.086 0-9.224-4.138-9.224-9.224S10.914 6.776 16 6.776s9.224 4.138 9.224 9.224c0 .84-.114 1.678-.34 2.488a.888.888 0 1 0 1.711.478C26.865 18 27 17.002 27 16c0-6.063-4.937-11-11-11S5 9.934 5 16s4.934 11 11 11zm3.375-11.026a2.352 2.352 0 0 0-1.382-.532 2.06 2.06 0 0 0 .767-1.06c.13-.412.148-.85.054-1.27a2.537 2.537 0 0 0-.894-1.434 2.138 2.138 0 0 0-.752-.377 1.795 1.795 0 0 0-.88-.015l-.561.122a.296.296 0 0 1-.353-.224l-.148-.668a.296.296 0 0 0-.353-.224l-.677.15a.296.296 0 0 0-.227.35l.15.673a.296.296 0 0 1-.225.353l-1.833.406a.722.722 0 0 0-.55.86l1.65 7.46a.722.722 0 0 0 .86.55l1.833-.407a.296.296 0 0 1 .353.225l.148.667a.296.296 0 0 0 .353.225l.677-.15a.296.296 0 0 0 .225-.353l-.149-.672a.296.296 0 0 1 .22-.352l.253-.061c.408-.09.489-.147.831-.324a3.14 3.14 0 0 0 .868-.637c.23-.241.398-.532.494-.85.096-.343.102-.706.016-1.052-.132-.601-.388-1.061-.768-1.379zm-5.43-1.597a.722.722 0 0 1 .55-.86l1.38-.306a.767.767 0 0 1 .611.114c.19.124.316.332.38.624.07.316.035.569-.107.757a.916.916 0 0 1-.55.358l-1.305.289a.722.722 0 0 1-.861-.55l-.098-.426zm3.909 3.767a.916.916 0 0 1-.604.409l-1.569.347a.722.722 0 0 1-.86-.55l-.117-.527a.722.722 0 0 1 .55-.86l1.656-.367a.764.764 0 0 1 .663.156c.204.162.343.391.392.647a.951.951 0 0 1-.109.745h-.002zm3.298 5.383a.277.277 0 0 0-.065.18v.28c0 .153.124.277.277.277h2.452a.277.277 0 0 0 .278-.277v-.215a.277.277 0 0 0-.278-.277h-1.051a.277.277 0 0 1-.217-.45l1.466-1.842c.04-.049.061-.11.061-.172v-.284a.277.277 0 0 0-.277-.277H21.44a.277.277 0 0 0-.278.277v.216c0 .153.124.277.278.277h1.032a.277.277 0 0 1 .213.455l-1.533 1.832z"/></svg>
